storage/app/icons/phosphoricons/fill/film-strip-fill.svg

<svg xmlns="http://www.w3.org/2000/svg" fill="currentColor" viewBox="0 0 256 256"><path d="M216 40H40a16 16 0 0 0-16 16v144a16 16 0 0 0 16 16h176a16 16 0 0 0 16-16V56a16 16 0 0 0-16-16m-32 16h32v16h-32ZM72 200H40v-16h32Zm0-128H40V56h32Zm48 128H88v-16h32Zm0-128H88V56h32Zm48 128h-32v-16h32Zm0-128h-32V56h32Zm48 128h-32v-16h32z"/></svg>

<svg xmlns="http://www.w3.org/2000/svg" viewBox="0 0 256 256" fill="currentColor"><path d="M216,40H40A16,16,0,0,0,24,56V200a16,16,0,0,0,16,16H216a16,16,0,0,0,16-16V56A16,16,0,0,0,216,40ZM184,56h32V72H184ZM72,200H40V184H72ZM72,72H40V56H72Zm48,128H88V184h32Zm0-128H88V56h32Zm48,128H136V184h32Zm0-128H136V56h32Zm48,128H184V184h32v16Z"/></svg>
